!!!OTL: ALLES WAS WIR LIEBEN LEBE
!!!ARE: Europa, Mitteleuropa, Deutschland
!!!SCT: F0555
!!!YEM: Copyright 1995, estate of Helmut Schaffrath.
**kern
*ICvox
*Ivox
*M6/8
*k[f#c#g#]
*A:
{8e
8f#
8g#
=1
4a
8a
8b
8a
8b
=2
2.cc#
=3
4a
8r}
{8cc#
8b
8a
=4
4g#
8g#
8b
8a
8f#
=5
4.e}
{8e
8f#
8g#
=6
4a
8a
8b
8a
8b
=7
2.cc#
=8
4a
8r}
{8cc#
8b
8a
=9
4g#
8g#
8b
8a
8f#
=10
4.e}
{4b
8b
=11
8dd
8cc#
8b
4a
8a
=12
8a
8g#
8a}
{4b
8b
=13
8dd
8cc#
8b
4a
8a
=14
8a
8g#
8a}
{4e
8a
=15
4cc#
8ee
8b
8a
8b
=16
4.cc#}
{4e
8a
=17
4cc#
8ee
8b
8cc#
8b
=18
4.a}
==
!!!AGN: Studenten - Lied, Geselligkeit
!!!ONB: ESAC (Essen Associative Code) Database: FINK
!!!AMT: compound duple
!!!AIN: vox
!!!EED: Helmut Schaffrath
!!!EEV: 1.0
*-
